svg/diamond_stone.svg

<svg xmlns="http://www.w3.org/2000/svg" viewBox="0 0 24 24"><path d="M16 9h3l-5 7m-4-7h4l-2 8M5 9h3l2 7m5-12h2l2 3h-3m-5-3h2l1 3h-4M7 4h2L8 7H5m1-5L2 8l10 14L22 8l-4-6z"/></svg>

<?xml version="1.0" encoding="UTF-8"?><!DOCTYPE svg PUBLIC "-//W3C//DTD SVG 1.1//EN" "http://www.w3.org/Graphics/SVG/1.1/DTD/svg11.dtd"><svg xmlns="http://www.w3.org/2000/svg" xmlns:xlink="http://www.w3.org/1999/xlink" version="1.1" id="mdi-diamond-stone" width="24" height="24" viewBox="0 0 24 24"><path d="M16,9H19L14,16M10,9H14L12,17M5,9H8L10,16M15,4H17L19,7H16M11,4H13L14,7H10M7,4H9L8,7H5M6,2L2,8L12,22L22,8L18,2H6Z" /></svg>
